!!!OTL: Letzter Versuch. / (Schlemmerlied.) / A. Aelteste Leseart.
!!!ARE: Europa, Mitteleuropa, Deutschland
!!!SCT: A0232A
!!!TXL: @@GMH
!!!YEM: Copyright 1995, estate of Helmut Schaffrath.
**kern	**text
*M4/2	*
*met(c|)	*
*clefC3	*
*k[b-]	*
*F:ion	*
=1	=1
!LO:TX:a:t=jon. Solo.	!
{1c	Jch
2c	ſoll
2c	vnd
=2	=2
2c	muß
2c	ein
2B-	bů-
2c	-len
=3	=3
1A	ha-
1F}	-ben,
=4||	=4||
!LO:TX:a:t=Chor.	!
{2.A	[Tra-
4B-	-be
2c	dich,
[2d	thier-
=5	=5
2d]	.
1c	.
2B-	-lein,
=6	=6
0A}	trab!]
=7||	=7||
!LO:TX:a:t=Solo.	!
{1c	vnd
2c	ſolt
2c	ichn
=8	=8
2c	aus
2c	der
2B-	er-
2c	-den
=9	=9
1A	gra-
1F}	-ben.
=10||	=10||
!LO:TX:a:t=Chor.	!
{2A	Tra-
*lig	*
4B-	-be
4c/	.
*Xlig	*
2d	dich,
*lig	*
2c	thier-
=11	=11
2c	.
*Xlig	*
4B-	.
4A	.
2G	.
2G	-lein,
=12	=12
0F/ll}	trab!
==	==
!!!GTL: Liebeslieder
!!!AGN: Romanze, Ballade, Lied
!! J. Ott 1544 No. 7, Forster III. 1549 No. 60.
!!!ONB: ESAC (Essen Associative Code) Database: ALTDEU
!!!AMT: simple quadruple
!!!AIN: vox
!!!EED: Helmut Schaffrath
!!!EEV: 1.0
!!!RDF**kern: l = terminal long
!!!AMD: Ionian
!!!URL-scan: https://rosdok.uni-rostock.de/mcrviewer/recordIdentifier/rosdok_ppn738218359/iview2/phys_0383.iview2?x=-495.6391625615763&y=960.3798029748723&scale=0.4629418472063854&rotation=0&layout=singlePageLayout&logicalDiv=log_0010
!!!ENC: Anna Maria Matuszewska
!!!EEV: 2024/08/03
*-	*-
